assets/img/toggle-card.svg

<svg width="125" height="89" viewBox="0 0 125 89" fill="none" xmlns="http://www.w3.org/2000/svg">
<rect width="55.5886" height="32.2414" rx="16.1207" fill="#124A73"/>
<ellipse cx="39.4675" cy="16.1207" rx="13.8971" ry="13.8971" fill="white"/>
<path d="M37.2224 19.2229L33.7249 15.8393C33.4272 15.5509 33.0465 15.4066 32.5861 15.4066C32.1257 15.4066 31.745 15.5509 31.4473 15.8393C31.1496 16.1278 31 16.4951 31 16.941C31 17.3868 31.1496 17.7541 31.4473 18.0426L36.0838 22.5279C36.409 22.8426 36.7881 23 37.2224 23C37.6568 23 38.0358 22.8426 38.3612 22.5279L47.5527 13.6361C47.8504 13.3476 48 12.9803 48 12.5344C48 12.0885 47.8504 11.7213 47.5527 11.4328C47.255 11.1443 46.8743 11 46.4139 11C45.9535 11 45.5728 11.1443 45.2751 11.4328L37.2224 19.2229Z" fill="#124A73"/>
<path d="M65 19C65 17.3431 66.3431 16 68 16H113C114.657 16 116 17.3431 116 19V19C116 20.6569 114.657 22 113 22H68C66.3431 22 65 20.6569 65 19V19Z" fill="#457AA5"/>
<rect x="55.5889" y="88.3074" width="55.5886" height="32.2414" rx="16.1207" transform="rotate(180 55.5889 88.3074)" fill="#BEC0C1"/>
<circle cx="17.2337" cy="72.3915" r="13.8971" transform="rotate(180 17.2337 72.3915)" fill="white"/>
<rect x="63.8857" y="70.4086" width="61.1143" height="6.11593" rx="3.05796" fill="#BEC0C1"/>
<path d="M17.2347 73.871L12.0563 79.0495C11.8626 79.2432 11.616 79.3401 11.3165 79.3401C11.0171 79.3401 10.7705 79.2432 10.5768 79.0495C10.383 78.8557 10.2861 78.6091 10.2861 78.3097C10.2861 78.0102 10.383 77.7637 10.5768 77.5699L15.7552 72.3915L10.5768 67.2131C10.383 67.0194 10.2861 66.7728 10.2861 66.4733C10.2861 66.1739 10.383 65.9273 10.5768 65.7336C10.7705 65.5398 11.0171 65.4429 11.3165 65.4429C11.616 65.4429 11.8626 65.5398 12.0563 65.7336L17.2347 70.912L22.4131 65.7336C22.6069 65.5398 22.8534 65.4429 23.1529 65.4429C23.4523 65.4429 23.6989 65.5398 23.8927 65.7336C24.0864 65.9273 24.1833 66.1739 24.1833 66.4733C24.1833 66.7728 24.0864 67.0194 23.8927 67.2131L18.7142 72.3915L23.8927 77.5699C24.0864 77.7637 24.1833 78.0102 24.1833 78.3097C24.1833 78.6091 24.0864 78.8557 23.8927 79.0495C23.6989 79.2432 23.4523 79.3401 23.1529 79.3401C22.8534 79.3401 22.6069 79.2432 22.4131 79.0495L17.2347 73.871Z" fill="#BEC0C1" stroke="#BEC0C1" stroke-width="1.20961"/>
</svg>

<svg xmlns="http://www.w3.org/2000/svg" width="125" height="89" fill="none" viewBox="0 0 125 89"><rect width="55.589" height="32.241" fill="#124a73" rx="16.121"/><circle cx="39.468" cy="16.121" r="13.897" fill="#fff"/><path fill="#124a73" d="m37.222 19.223-3.497-3.384q-.447-.432-1.139-.432-.691 0-1.139.432-.446.433-.447 1.102 0 .669.447 1.102l4.637 4.485q.487.472 1.138.472.652 0 1.14-.472l9.19-8.892q.448-.433.448-1.102t-.447-1.101Q47.105 11 46.413 11q-.69 0-1.138.433z"/><path fill="#457aa5" d="M65 19a3 3 0 0 1 3-3h45a3 3 0 1 1 0 6H68a3 3 0 0 1-3-3"/><rect width="55.589" height="32.241" x="55.589" y="88.307" fill="#bec0c1" rx="16.121" transform="rotate(180 55.589 88.307)"/><circle cx="17.234" cy="72.391" r="13.897" fill="#fff" transform="rotate(180 17.234 72.391)"/><rect width="61.114" height="6.116" x="63.886" y="70.409" fill="#bec0c1" rx="3.058"/><path fill="#bec0c1" stroke="#bec0c1" stroke-width="1.21" d="m17.235 73.871-5.179 5.179q-.29.29-.74.29-.449 0-.74-.29a1 1 0 0 1-.29-.74q0-.45.29-.74l5.18-5.178-5.18-5.179a1 1 0 0 1-.29-.74q0-.45.29-.74.291-.29.74-.29.45 0 .74.29l5.179 5.179 5.178-5.178q.29-.291.74-.291t.74.29.29.74-.29.74l-5.179 5.179 5.179 5.178q.29.29.29.74t-.29.74q-.29.29-.74.29t-.74-.29z"/></svg>
